docs/images/logos/bosch_.svg

<?xml version="1.0" encoding="UTF-8" standalone="no"?>
<svg
   xmlns:dc="http://purl.org/dc/elements/1.1/"
   xmlns:cc="http://creativecommons.org/ns#"
   xmlns:rdf="http://www.w3.org/1999/02/22-rdf-syntax-ns#"
   xmlns:svg="http://www.w3.org/2000/svg"
   xmlns="http://www.w3.org/2000/svg"
   xmlns:sodipodi="http://sodipodi.sourceforge.net/DTD/sodipodi-0.dtd"
   xmlns:inkscape="http://www.inkscape.org/namespaces/inkscape"
   version="1.1"
   id="Ebene_1"
   x="0px"
   y="0px"
   viewBox="0 0 549.2 232"
   style="enable-background:new 0 0 549.2 232;"
   xml:space="preserve"
   sodipodi:docname="bosch_.svg"
   inkscape:version="1.0beta2 (2b71d25, 2019-12-03)"><metadata
   id="metadata40"><rdf:RDF><cc:Work
       rdf:about=""><dc:format>image/svg+xml</dc:format><dc:type
         rdf:resource="http://purl.org/dc/dcmitype/StillImage" /></cc:Work></rdf:RDF></metadata><defs
   id="defs38" /><sodipodi:namedview
   pagecolor="#ffffff"
   bordercolor="#666666"
   inkscape:document-rotation="0"
   borderopacity="1"
   objecttolerance="10"
   gridtolerance="10"
   guidetolerance="10"
   inkscape:pageopacity="0"
   inkscape:pageshadow="2"
   inkscape:window-width="938"
   inkscape:window-height="480"
   id="namedview36"
   showgrid="false"
   inkscape:zoom="0.89584849"
   inkscape:cx="274.60001"
   inkscape:cy="116"
   inkscape:window-x="0"
   inkscape:window-y="23"
   inkscape:window-maximized="0"
   inkscape:current-layer="Ebene_1" />
<style
   type="text/css"
   id="style10">
	.st0{fill:#E20015;}
	.st1{fill:#575757;}
</style>
<g
   id="g33"
   transform="matrix(1.2217052,0,0,1.2217052,-55.195844,-28.294231)">
	<g
   id="g24">
		<g
   id="g22">
			
			
			
			
			
		</g>
	</g>
	<g
   id="_x38_7_x2F_87_x2F_87__x7C__0_x2F_0_x2F_0">
		<g
   id="g30">
			<path
   class="st1"
   d="m 100.8,71.5 c -26.6,0 -48.2,21.6 -48.2,48.2 0,26.6 21.6,48.2 48.2,48.2 26.6,0 48.2,-21.6 48.2,-48.2 0,-26.6 -21.6,-48.2 -48.2,-48.2 z m 0,91.9 c -24.1,0 -43.7,-19.6 -43.7,-43.7 0,-24.1 19.6,-43.7 43.7,-43.7 24.1,0 43.7,19.6 43.7,43.7 0,24.1 -19.6,43.7 -43.7,43.7 z"
   id="path26"
   inkscape:connector-curvature="0" />
			<path
   class="st1"
   d="m 120.7,89.6 h -3.3 v 16.5 H 84.3 V 89.6 h -3.4 c -9.7,6.5 -16.2,17.5 -16.2,30.1 0,12.6 6.5,23.6 16.2,30.1 h 3.4 v -16.5 h 33.1 v 16.5 h 3.3 c 9.8,-6.5 16.2,-17.5 16.2,-30.1 0,-12.6 -6.4,-23.6 -16.2,-30.1 z m -41,53.7 C 73,137.4 69.1,128.9 69.1,119.7 69.1,110.5 73,102 79.7,96.1 Z m 37.7,-14.6 H 84.3 v -18.1 h 33.1 c 0,0.1 0,18.1 0,18.1 z m 4.5,14.5 v -10 0 -27.1 0 -10 c 6.6,5.9 10.5,14.4 10.5,23.5 0,9.2 -3.9,17.7 -10.5,23.6 z"
   id="path28"
   inkscape:connector-curvature="0" />
		</g>
	</g>
</g>
</svg>

<?xml version="1.0" encoding="utf-8"?>
<!-- Generator: Adobe Illustrator 21.0.0, SVG Export Plug-In . SVG Version: 6.00 Build 0)  -->
<svg version="1.1" id="Ebene_1" xmlns="http://www.w3.org/2000/svg" xmlns:xlink="http://www.w3.org/1999/xlink" x="0px" y="0px"
	 viewBox="0 0 549.2 232" style="enable-background:new 0 0 549.2 232;" xml:space="preserve">
<style type="text/css">
	.st0{fill:#E20015;}
	.st1{fill:#575757;}
</style>
<g>
	<g id="_x38_7_x2F_87_x2F_87__x7C__0_x2F_0_x2F_0">
		<g>
			<path class="st1" d="M100.8,71.5c-26.6,0-48.2,21.6-48.2,48.2s21.6,48.2,48.2,48.2c26.6,0,48.2-21.6,48.2-48.2
				S127.4,71.5,100.8,71.5z M100.8,163.4c-24.1,0-43.7-19.6-43.7-43.7S76.7,76,100.8,76c24.1,0,43.7,19.6,43.7,43.7
				S124.9,163.4,100.8,163.4z"/>
			<path class="st1" d="M120.7,89.6h-3.3v16.5H84.3V89.6h-3.4c-9.7,6.5-16.2,17.5-16.2,30.1c0,12.6,6.5,23.6,16.2,30.1h3.4v-16.5
				h33.1v16.5h3.3c9.8-6.5,16.2-17.5,16.2-30.1C136.9,107.1,130.5,96.1,120.7,89.6z M79.7,143.3c-6.7-5.9-10.6-14.4-10.6-23.6
				c0-9.2,3.9-17.7,10.6-23.6V143.3z M117.4,128.7H84.3v-18.1h33.1C117.4,110.7,117.4,128.7,117.4,128.7z M121.9,143.2v-10l0,0
				v-27.1l0,0v-10c6.6,5.9,10.5,14.4,10.5,23.5C132.4,128.8,128.5,137.3,121.9,143.2z"/>
		</g>
	</g>
</g>
</svg>
